tools/download-figma-icons/icons/outlined-large/tick-shape.svg

<svg width="64" height="64" viewBox="0 0 64 64" fill="none" xmlns="http://www.w3.org/2000/svg">
<path fill-rule="evenodd" clip-rule="evenodd" d="M27.1289 55.3667C26.6449 54.8347 25.9619 54.5447 25.2649 54.5447C25.0099 54.5447 24.7529 54.5837 24.5029 54.6637L17.6149 56.8627L16.076 49.7977C15.866 48.8377 15.11 48.0827 14.153 47.8757L7.08798 46.3357L9.28797 39.4468C9.58497 38.5128 9.30897 37.4828 8.58398 36.8218L3.23499 31.9568L8.58398 27.0908C9.30897 26.4308 9.58497 25.4008 9.28697 24.4638L7.08798 17.5768L14.153 16.0378C15.111 15.8288 15.866 15.0748 16.076 14.1148L17.6149 7.04986L24.5019 9.24885C25.4369 9.54785 26.4689 9.27185 27.1289 8.54585L31.9949 3.19687L36.8599 8.54485C37.5209 9.27285 38.5529 9.54785 39.4859 9.24885L46.3739 7.04986L47.9139 14.1158C48.1229 15.0748 48.8779 15.8288 49.8359 16.0378L56.9008 17.5768L54.7018 24.4658C54.4038 25.4008 54.6798 26.4308 55.4058 27.0908L60.7538 31.9568L55.4048 36.8218C54.6798 37.4828 54.4038 38.5128 54.7018 39.4478L56.9008 46.3357L49.8379 47.8757C48.8789 48.0827 48.1239 48.8377 47.9129 49.7987L46.3739 56.8627L39.4869 54.6637C38.5549 54.3637 37.5209 54.6407 36.8599 55.3667L31.9949 60.7167L27.1289 55.3667ZM30.1339 63.1287C30.6089 63.6517 31.2879 63.9517 31.9949 63.9517C32.7019 63.9517 33.3799 63.6517 33.8559 63.1287L38.8699 57.6157L45.9699 59.8837C46.6419 60.0987 47.3809 60.0187 47.9929 59.6637C48.6049 59.3107 49.0419 58.7117 49.1929 58.0217L50.7789 50.7407L58.0588 49.1537C58.7488 49.0047 59.3488 48.5677 59.7018 47.9557C60.0568 47.3427 60.1358 46.6057 59.9208 45.9307L57.6538 38.8318L63.1658 33.8188C63.6888 33.3428 63.9898 32.6638 63.9898 31.9568C63.9898 31.2488 63.6888 30.5708 63.1658 30.0958L57.6538 25.0808L59.9208 17.9828C60.1358 17.3088 60.0568 16.5708 59.7028 15.9588C59.3498 15.3468 58.7498 14.9098 58.0598 14.7588L50.7789 13.1728L49.1929 5.89186C49.0419 5.20086 48.6039 4.60186 47.9919 4.24886C47.3799 3.89586 46.6419 3.81486 45.9689 4.03086L38.8699 6.29686L33.8559 0.784873C32.9049 -0.262124 31.0849 -0.261124 30.1339 0.784873L25.1199 6.29686L18.0209 4.03086C17.346 3.81486 16.609 3.89586 15.997 4.24886C15.385 4.60186 14.948 5.20086 14.797 5.89186L13.211 13.1728L5.92998 14.7588C5.23898 14.9098 4.63999 15.3468 4.28699 15.9588C3.93299 16.5708 3.85299 17.3088 4.06899 17.9828L6.33498 25.0808L0.823998 30.0948C0.299999 30.5708 0 31.2488 0 31.9568C0 32.6638 0.299999 33.3428 0.822998 33.8178L6.33498 38.8318L4.06799 45.9307C3.85299 46.6057 3.93299 47.3427 4.28699 47.9557C4.64099 48.5677 5.23998 49.0047 5.92998 49.1537L13.211 50.7407L14.797 58.0217C14.947 58.7117 15.385 59.3107 15.996 59.6637C16.609 60.0187 17.346 60.0977 18.0199 59.8827L25.1199 57.6157L30.1339 63.1287ZM20.3034 31.7926C20.5434 31.5576 20.8404 31.4326 21.1624 31.4326C21.4684 31.4326 21.7824 31.5636 22.0014 31.7836L26.9114 36.6936C27.1924 36.9746 27.5744 37.1326 27.9724 37.1326C28.3704 37.1326 28.7514 36.9746 29.0324 36.6936L41.9824 23.7436C42.4494 23.2766 43.2124 23.2796 43.6714 23.7336C43.9044 23.9706 44.0324 24.2756 44.0324 24.5926C44.0324 24.9096 43.9044 25.2186 43.6814 25.4416L29.0344 40.0896C28.7504 40.3726 28.3744 40.5286 27.9744 40.5286H27.9734C27.5724 40.5286 27.1954 40.3716 26.9124 40.0876L20.3084 33.4776C20.0824 33.2536 19.9574 32.9556 19.9574 32.6396C19.9564 32.3176 20.0824 32.0136 20.3034 31.7926ZM27.9724 43.5286H27.9744C29.1754 43.5286 30.3054 43.0606 31.1554 42.2106L45.8024 27.5626C46.5834 26.7816 47.0324 25.6996 47.0324 24.5926C47.0324 23.4846 46.5994 22.4326 45.7974 21.6176C44.1554 19.9896 41.4914 19.9916 39.8614 21.6216L27.9724 33.5116L24.1224 29.6616C23.3414 28.8806 22.2624 28.4326 21.1624 28.4326C20.0544 28.4326 19.0024 28.8656 18.1914 29.6616C17.3935 30.4606 16.9545 31.5196 16.9575 32.6456C16.9595 33.7666 17.3995 34.8186 18.1914 35.6036L24.7894 42.2076C25.6394 43.0596 26.7694 43.5286 27.9724 43.5286Z" fill="black"/>
</svg>

<svg width="64" height="64" viewBox="0 0 64 64" fill="none" xmlns="http://www.w3.org/2000/svg"><path fill-rule="evenodd" clip-rule="evenodd" d="M27.129 55.367a2.523 2.523 0 0 0-2.626-.703l-6.888 2.199-1.539-7.065a2.522 2.522 0 0 0-1.923-1.922l-7.065-1.54 2.2-6.89a2.526 2.526 0 0 0-.704-2.624l-5.349-4.865 5.349-4.866a2.525 2.525 0 0 0 .703-2.627l-2.199-6.887 7.065-1.54a2.525 2.525 0 0 0 1.923-1.922l1.539-7.065 6.887 2.199a2.522 2.522 0 0 0 2.627-.703l4.866-5.35 4.865 5.349a2.518 2.518 0 0 0 2.626.704l6.888-2.2 1.54 7.067a2.522 2.522 0 0 0 1.922 1.922l7.065 1.539-2.2 6.889a2.52 2.52 0 0 0 .705 2.625l5.348 4.866-5.35 4.865a2.525 2.525 0 0 0-.702 2.626l2.199 6.888-7.063 1.54a2.523 2.523 0 0 0-1.925 1.923l-1.54 7.064-6.886-2.2a2.522 2.522 0 0 0-2.627.704l-4.865 5.35-4.866-5.35Zm3.005 7.762a2.52 2.52 0 0 0 1.86.823c.708 0 1.386-.3 1.862-.823l5.014-5.513 7.1 2.268a2.516 2.516 0 0 0 3.223-1.862l1.586-7.281 7.28-1.587a2.514 2.514 0 0 0 1.862-3.223l-2.267-7.1 5.512-5.012a2.524 2.524 0 0 0 .824-1.862c0-.708-.301-1.386-.824-1.861l-5.512-5.015 2.267-7.098a2.52 2.52 0 0 0-.218-2.024 2.523 2.523 0 0 0-1.643-1.2l-7.281-1.586-1.586-7.281a2.519 2.519 0 0 0-3.224-1.861l-7.1 2.266L33.857.785c-.951-1.047-2.771-1.046-3.722 0L25.12 6.297l-7.1-2.266a2.52 2.52 0 0 0-2.023.218 2.521 2.521 0 0 0-1.2 1.643l-1.586 7.28L5.93 14.76a2.517 2.517 0 0 0-1.861 3.224l2.266 7.098-5.511 5.014a2.52 2.52 0 0 0-.001 3.723l5.512 5.014-2.267 7.099a2.516 2.516 0 0 0 1.862 3.223l7.281 1.587 1.586 7.28a2.52 2.52 0 0 0 3.223 1.862l7.1-2.267 5.014 5.513Zm-9.83-31.336c.24-.235.536-.36.858-.36.306 0 .62.13.84.35l4.91 4.91a1.5 1.5 0 0 0 2.12 0l12.95-12.95a1.205 1.205 0 0 1 1.69-.01c.232.238.36.543.36.86 0 .317-.128.626-.35.849L29.033 40.09c-.284.283-.66.439-1.06.439a1.49 1.49 0 0 1-1.062-.441l-6.604-6.61a1.19 1.19 0 0 1-.005-1.685Zm7.668 11.736h.002a4.47 4.47 0 0 0 3.181-1.318l14.647-14.648a4.229 4.229 0 0 0 1.23-2.97c0-1.108-.433-2.16-1.235-2.975-1.642-1.628-4.306-1.626-5.936.004l-11.889 11.89-3.85-3.85a4.217 4.217 0 0 0-2.96-1.23c-1.108 0-2.16.434-2.97 1.23a4.18 4.18 0 0 0-1.235 2.984 4.15 4.15 0 0 0 1.234 2.958l6.598 6.604a4.466 4.466 0 0 0 3.183 1.32Z" fill="currentColor"/></svg>
